X: 3020
Q:"Reel."
M: C
L: 1/8
K: D
d>D D/D/D (A,D)DG | FDDG F/G/A/F/ DF |\
g |\
fdad bdag | fddg f/g/a/f/ df |\
gebe geef | gebe g/a/b/g/ eg |\
fdad bdag | fddg f/g/a/f/ df |\
gbeg fadf | ceAc d/d/d d |]


